X:15
T:English Duty - Foot March 8 Division ThFife.15, The
T:English Duty ThFife.15, The
T:Foot March 8 Division ThFife.15
B:Thompson, C. & Thompson, S., 'The Compleat Tutor for the Fife', London, c.1765-1780.
S:Digitised by National Library of Scotland at: https://archive.org/details/nlsmusic
Z:vmp Roger Hare, 2019.
M:3/4
L:1/8
Q:3/4=50
K:G
|: G2 B2 d2 | g3 f g2 | a>gf>ed>c | B2 G2 B2 | d^cde d2 |
z G ((3FED) E>D | D6 "^2" ]] G2 B2 !fermata!e2 | G3 c !fermata!e2  "^3" ]]e|d3cBA |
GFED E>D | D6  "^4" ]]e>f g2 f>e | d^cded2 | G3AB2
"^5"]]e3fgf | d4c2 | B3AG2 | G6 "^6" ]]e2dcB2 | d2^c3d |
dAD2c2 | B2e2dc | BAGFGA | G2F2c2 | B2efge |
d3cBA | G2gdBG "^7"]]G3ABc | B4Bc | dcded>c |
B2A3G | G6 "^8"]]e3fg2 | d3cBA | BA G>fg2 | fe/d/ ed/^c/ d2 |
G>c B2 (G/A/B/c/) | d>fg2d>c | B2!trill!A3G | G4|]

